X: 1
T: You Married My Daughter But Yet You Didn't
S: Roaring Jelly collection
M: C|
R: reel
K: G
|:\
"G"B2d2 g2g2 | "D"fgaf "G"g2g2 | B2d2 "D"f2f2 | "A7"efge "D"f2f2 |
"G"B2d2 g2g2 | "D"fgaf "G"g2g2 | B2d2 "D"fgfe | dBA2 "G"G4 :|
|:\
"G"BcdB G2BB | G2BB d2c2 | "D"ABcA F2AA | F2AA "G"e2d2 |
"G"BcdB G2BB | G2BB d2c2 | "D"ABcA F2fe | dBA2 "G"G4 :|
